Newaita-dark/apps/64/preferences-virtualization-container.svg

<svg height="64" viewBox="0 0 64 64" width="64" xmlns="http://www.w3.org/2000/svg" xmlns:xlink="http://www.w3.org/1999/xlink"><linearGradient id="a" gradientUnits="userSpaceOnUse" x1="31.75304" x2="31.75304" y1="56.067872" y2="58.71396000006"><stop offset="0" stop-opacity=".27451"/><stop offset="1" stop-opacity="0"/></linearGradient><linearGradient id="b"><stop offset="0" stop-opacity=".313726"/><stop offset=".222222" stop-opacity=".27451"/><stop offset="1" stop-opacity="0"/></linearGradient><radialGradient id="c" cx="450.908936" cy="189.579361" gradientTransform="matrix(.00000035 -.156265 -.281277 -.0000002 104.261296 127.190665)" gradientUnits="userSpaceOnUse" r="21.166656" xlink:href="#b"/><radialGradient id="d" cx="450.908936" cy="189.579361" gradientTransform="matrix(-.00000035 .156265 .281277 .0000002 -40.755227 -15.054958)" gradientUnits="userSpaceOnUse" r="21.166656" xlink:href="#b"/><radialGradient id="e" cx="450.908936" cy="189.579361" gradientTransform="matrix(-.00000035 -.156265 .281277 -.0000002 -40.755227 127.190665)" gradientUnits="userSpaceOnUse" r="21.166656" xlink:href="#b"/><radialGradient id="f" cx="450.908936" cy="189.579361" gradientTransform="matrix(.00000035 .156265 -.281277 .0000002 104.261293 -15.054959)" gradientUnits="userSpaceOnUse" r="21.166656" xlink:href="#b"/><linearGradient id="g"><stop offset="0" stop-color="#757575"/><stop offset="1" stop-color="#9e9e9e"/></linearGradient><linearGradient id="h" gradientUnits="userSpaceOnUse" x1="21.16869799994" x2="21.16869799994" xlink:href="#g" y1="56.067868" y2="5.79221000013"/><linearGradient id="i" gradientUnits="userSpaceOnUse" x1="22.83986443854" x2="22.83986443854" y1="52.0986755" y2="9.76138512291"><stop offset="0" stop-color="#bdbdbd"/><stop offset="1" stop-color="#9e9e9e"/></linearGradient><linearGradient id="j" gradientUnits="userSpaceOnUse" x1="32.414569" x2="32.414569" xlink:href="#g" y1="50.775726" y2="3.146154"/><linearGradient id="k" gradientUnits="userSpaceOnUse" x1="45.644997" x2="45.644997" xlink:href="#g" y1="50.775726" y2="3.146154"/><linearGradient id="l" gradientUnits="userSpaceOnUse" x1="20.507175" x2="20.507175" y1="50.775726" y2="3.146154"><stop offset="0" stop-color="#f44336"/><stop offset="1" stop-color="#ef5350"/></linearGradient><linearGradient id="m" gradientUnits="userSpaceOnUse" x1="39.029796" x2="39.029796" y1="50.77575490428" y2="3.14616938278"><stop offset="0" stop-color="#424242"/><stop offset="1" stop-color="#616161"/></linearGradient><path d="m11.90625 55.871094h39.691406v2.941406h-39.691406zm0 0" fill="url(#a)"/><path d="m51.597656 56.066406h5.292969v-2.644531h-5.292969zm0 0" fill="url(#c)"/><path d="m11.90625 56.066406h-5.292969v2.648438h5.292969zm0 0" fill="url(#d)"/><path d="m11.90625 56.066406h-5.292969v-2.644531h5.292969zm0 0" fill="url(#e)"/><path d="m51.597656 56.066406h5.292969v2.648438h-5.292969zm0 0" fill="url(#f)"/><path d="m9.261719 5.792969h44.984375c1.460937 0 2.644531 1.183593 2.644531 2.644531v44.984375c0 1.460937-1.183594 2.644531-2.644531 2.644531h-44.984375c-1.460938 0-2.648438-1.183594-2.648438-2.644531v-44.984375c0-1.460938 1.1875-2.644531 2.648438-2.644531zm0 0" fill="url(#h)"/><path d="m9.261719 5.972656c-1.464844 0-2.648438 1.179688-2.648438 2.644532v.332031c0-1.464844 1.183594-2.648438 2.648438-2.644531h44.984375c1.464844-.003907 2.644531 1.179687 2.644531 2.644531v-.332031c0-1.464844-1.179687-2.644532-2.644531-2.644532zm0 0" fill="#e6e6e6" fill-opacity=".392157"/><path d="m9.261719 56.066406c-1.464844 0-2.648438-1.179687-2.648438-2.644531v-.332031c0 1.46875 1.183594 2.648437 2.648438 2.648437h44.984375c1.464844 0 2.644531-1.179687 2.644531-2.648437v.332031c0 1.464844-1.179687 2.644531-2.644531 2.644531zm0 0" fill-opacity=".196078"/><path d="m74.086675-168.660675h359.840637c11.686384 0 21.15423 9.467846 21.15423 21.15423v359.840637c0 11.686384-9.467846 21.154229-21.15423 21.154229h-359.840637c-11.686384 0-21.185477-9.467845-21.185477-21.154229v-359.840637c0-11.686384 9.499093-21.15423 21.185477-21.15423zm0 0" fill="none" stroke="#212121" stroke-linecap="round" stroke-width="3" transform="matrix(.125012 0 0 .125012 0 26.877566)"/><path d="m11.90625 9.761719h39.691406c.730469 0 1.324219.59375 1.324219 1.324219v39.691406c0 .730468-.59375 1.320312-1.324219 1.320312h-39.691406c-.730469 0-1.320312-.589844-1.320312-1.320312v-39.691406c0-.730469.589843-1.324219 1.320312-1.324219zm0 0" fill="url(#i)"/><path d="m10.585938 50.777344v.660156c0 .734375.589843 1.324219 1.320312 1.324219h39.691406c.734375 0 1.324219-.589844 1.324219-1.324219v-.660156c0 .730468-.589844 1.320312-1.324219 1.320312h-39.691406c-.730469 0-1.320312-.589844-1.320312-1.320312zm0 0" fill="#fff" fill-opacity=".392157"/><path d="m10.585938 12.078125v-.992187c0-.734376.589843-1.324219 1.320312-1.324219h39.691406c.734375 0 1.324219.589843 1.324219 1.324219v.992187c0-.734375-.589844-1.324219-1.324219-1.324219h-39.691406c-.730469 0-1.320312.589844-1.320312 1.324219zm0 0" fill-opacity=".235294"/><path d="m95.240905-136.913707h317.50093c5.843192 0 10.592739 4.749547 10.592739 10.592739v317.50093c0 5.843192-4.749547 10.561491-10.592739 10.561491h-317.50093c-5.843192 0-10.561491-4.718299-10.561491-10.561491v-317.50093c0-5.843192 4.718299-10.592739 10.561491-10.592739zm0 0" fill="none" stroke="#212121" stroke-linecap="round" stroke-width="3" transform="matrix(.125012 0 0 .125012 0 26.877566)"/><path d="m24.476562 38.207031h2.644532l2.648437-6.617187 2.644531 6.617187h2.648438l-5.292969-11.90625zm0 0" fill="url(#j)"/><path d="m37.707031 38.207031h2.644531l2.648438-6.617187 2.644531 6.617187h2.648438l-5.292969-11.90625zm0 0" fill="url(#k)"/><path d="m12.570312 22.992188h2.644532l5.292968 11.90625 5.292969-11.90625h2.644531l-6.613281 15.214843h-2.648437zm0 0" fill="url(#l)"/><path d="m28.445312 22.992188-6.613281 15.214843h2.644531l5.292969-11.90625 5.292969 11.90625h2.644531l5.292969-11.90625 5.292969 11.90625h2.644531l-6.617188-15.214843h-2.644531l-5.292969 12.171874-5.292968-12.171874zm0 0" fill="url(#m)"/><path d="m100.552898-31.080063h21.15423l42.339706 95.240904 42.339707-95.240904h21.15423l-52.901198 121.707127h-21.185477zm0 0" fill="none" stroke="#212121" stroke-width="3" transform="matrix(.125012 0 0 .125012 0 26.877566)"/><path d="m12.570312 23.058594.214844.496094h2.429688l5.292968 11.90625 5.292969-11.90625h5.289063l5.292968 12.171874 5.292969-12.171874h2.644531l6.402344 14.71875h.214844l-6.617188-15.214844h-2.644531l-5.292969 12.171875-5.292968-12.171875h-5.289063l-5.292969 11.90625-5.292968-11.90625zm0 0" fill="#fff" fill-opacity=".392157"/><g fill="none" stroke="#212121" stroke-width="3" transform="matrix(.125012 0 0 .125012 0 26.877566)"><path d="m227.540771-31.080063-52.901198 121.707127h21.15423l42.339706-95.240905 42.339707 95.240905h21.15423l42.339707-95.240905 42.339707 95.240905h21.154229l-52.932445-121.707127h-21.15423l-42.339706 97.365702-42.339707-97.365702zm0 0"/><path d="m195.793803 90.627064h21.154229l21.185477-52.932445 21.15423 52.932445h21.185477l-42.339707-95.240905zm0 0"/><path d="m301.627446 90.627064h21.15423l21.185477-52.932445 21.15423 52.932445h21.185477l-42.339707-95.240905zm0 0"/></g><path d="m12.570312 23.652344 6.613282 15.214844h7.9375l2.648437-6.613282 2.644531 6.613282h7.9375l2.648438-6.613282 2.644531 6.613282h5.292969l-.214844-.496094h-5.078125l-2.644531-6.613282-2.648438 6.613282h-7.9375l-2.644531-6.613282-2.648437 6.613282h-7.9375l-6.398438-14.71875zm0 0" fill-opacity=".235294"/></svg>

<?xml version="1.0" encoding="UTF-8"?>
<svg xmlns="http://www.w3.org/2000/svg" xmlns:xlink="http://www.w3.org/1999/xlink" width="64px" height="64px" viewBox="0 0 64 64" version="1.1">
<defs>
<linearGradient id="linear0" gradientUnits="userSpaceOnUse" x1="254" y1="233.5" x2="254" y2="254.666672" gradientTransform="matrix(0.125012,0,0,0.125012,-0.00000763012,26.87757)">
<stop offset="0" style="stop-color:rgb(0%,0%,0%);stop-opacity:0.27451;"/>
<stop offset="1" style="stop-color:rgb(0%,0%,0%);stop-opacity:0;"/>
</linearGradient>
<radialGradient id="radial0" gradientUnits="userSpaceOnUse" cx="450.908936" cy="189.579361" fx="450.908936" fy="189.579361" r="21.166656" gradientTransform="matrix(0.000000348341,-0.156265,-0.281277,-0.000000203077,104.261296,127.190665)">
<stop offset="0" style="stop-color:rgb(0%,0%,0%);stop-opacity:0.313726;"/>
<stop offset="0.222222" style="stop-color:rgb(0%,0%,0%);stop-opacity:0.27451;"/>
<stop offset="1" style="stop-color:rgb(0%,0%,0%);stop-opacity:0;"/>
</radialGradient>
<radialGradient id="radial1" gradientUnits="userSpaceOnUse" cx="450.908936" cy="189.579361" fx="450.908936" fy="189.579361" r="21.166656" gradientTransform="matrix(-0.000000348341,0.156265,0.281277,0.000000203077,-40.755227,-15.054958)">
<stop offset="0" style="stop-color:rgb(0%,0%,0%);stop-opacity:0.313726;"/>
<stop offset="0.222222" style="stop-color:rgb(0%,0%,0%);stop-opacity:0.27451;"/>
<stop offset="1" style="stop-color:rgb(0%,0%,0%);stop-opacity:0;"/>
</radialGradient>
<radialGradient id="radial2" gradientUnits="userSpaceOnUse" cx="450.908936" cy="189.579361" fx="450.908936" fy="189.579361" r="21.166656" gradientTransform="matrix(-0.000000348341,-0.156265,0.281277,-0.000000203077,-40.755227,127.190665)">
<stop offset="0" style="stop-color:rgb(0%,0%,0%);stop-opacity:0.313726;"/>
<stop offset="0.222222" style="stop-color:rgb(0%,0%,0%);stop-opacity:0.27451;"/>
<stop offset="1" style="stop-color:rgb(0%,0%,0%);stop-opacity:0;"/>
</radialGradient>
<radialGradient id="radial3" gradientUnits="userSpaceOnUse" cx="450.908936" cy="189.579361" fx="450.908936" fy="189.579361" r="21.166656" gradientTransform="matrix(0.000000348341,0.156265,-0.281277,0.000000203077,104.261293,-15.054959)">
<stop offset="0" style="stop-color:rgb(0%,0%,0%);stop-opacity:0.313726;"/>
<stop offset="0.222222" style="stop-color:rgb(0%,0%,0%);stop-opacity:0.27451;"/>
<stop offset="1" style="stop-color:rgb(0%,0%,0%);stop-opacity:0;"/>
</radialGradient>
<linearGradient id="linear1" gradientUnits="userSpaceOnUse" x1="169.333328" y1="233.5" x2="169.333328" y2="-168.666656" gradientTransform="matrix(0.125012,0,0,0.125012,0,26.877566)">
<stop offset="0" style="stop-color:rgb(45.882353%,45.882353%,45.882353%);stop-opacity:1;"/>
<stop offset="1" style="stop-color:rgb(61.960787%,61.960787%,61.960787%);stop-opacity:1;"/>
</linearGradient>
<linearGradient id="linear2" gradientUnits="userSpaceOnUse" x1="169.333328" y1="233.5" x2="169.333328" y2="-168.666656" gradientTransform="matrix(0.105273,0,0,0.105273,5.013637,27.51743)">
<stop offset="0" style="stop-color:rgb(74.117649%,74.117649%,74.117649%);stop-opacity:1;"/>
<stop offset="1" style="stop-color:rgb(61.960787%,61.960787%,61.960787%);stop-opacity:1;"/>
</linearGradient>
<linearGradient id="linear3" gradientUnits="userSpaceOnUse" x1="254" y1="233.5" x2="254" y2="-147.5" gradientTransform="matrix(0.125012,0,0,0.125012,0.661521,21.585424)">
<stop offset="0" style="stop-color:rgb(45.882353%,45.882353%,45.882353%);stop-opacity:1;"/>
<stop offset="1" style="stop-color:rgb(61.960787%,61.960787%,61.960787%);stop-opacity:1;"/>
</linearGradient>
<linearGradient id="linear4" gradientUnits="userSpaceOnUse" x1="254" y1="233.5" x2="254" y2="-147.5" gradientTransform="matrix(0.125012,0,0,0.125012,13.891949,21.585424)">
<stop offset="0" style="stop-color:rgb(45.882353%,45.882353%,45.882353%);stop-opacity:1;"/>
<stop offset="1" style="stop-color:rgb(61.960787%,61.960787%,61.960787%);stop-opacity:1;"/>
</linearGradient>
<linearGradient id="linear5" gradientUnits="userSpaceOnUse" x1="158.75" y1="233.5" x2="158.75" y2="-147.5" gradientTransform="matrix(0.125012,0,0,0.125012,0.66152,21.585424)">
<stop offset="0" style="stop-color:rgb(95.686275%,26.274511%,21.176471%);stop-opacity:1;"/>
<stop offset="1" style="stop-color:rgb(93.725491%,32.549021%,31.37255%);stop-opacity:1;"/>
</linearGradient>
<linearGradient id="linear6" gradientUnits="userSpaceOnUse" x1="1160" y1="1695.118164" x2="1160" y2="255.118118" gradientTransform="matrix(0.0330761,0,0,0.0330761,0.66152,-5.292143)">
<stop offset="0" style="stop-color:rgb(25.882354%,25.882354%,25.882354%);stop-opacity:1;"/>
<stop offset="1" style="stop-color:rgb(38.039216%,38.039216%,38.039216%);stop-opacity:1;"/>
</linearGradient>
</defs>
<g id="surface1">
<path style=" stroke:none;fill-rule:nonzero;fill:url(#linear0);" d="M 11.90625 55.871094 L 51.597656 55.871094 L 51.597656 58.8125 L 11.90625 58.8125 Z M 11.90625 55.871094 "/>
<path style=" stroke:none;fill-rule:nonzero;fill:url(#radial0);" d="M 51.597656 56.066406 L 56.890625 56.066406 L 56.890625 53.421875 L 51.597656 53.421875 Z M 51.597656 56.066406 "/>
<path style=" stroke:none;fill-rule:nonzero;fill:url(#radial1);" d="M 11.90625 56.066406 L 6.613281 56.066406 L 6.613281 58.714844 L 11.90625 58.714844 Z M 11.90625 56.066406 "/>
<path style=" stroke:none;fill-rule:nonzero;fill:url(#radial2);" d="M 11.90625 56.066406 L 6.613281 56.066406 L 6.613281 53.421875 L 11.90625 53.421875 Z M 11.90625 56.066406 "/>
<path style=" stroke:none;fill-rule:nonzero;fill:url(#radial3);" d="M 51.597656 56.066406 L 56.890625 56.066406 L 56.890625 58.714844 L 51.597656 58.714844 Z M 51.597656 56.066406 "/>
<path style=" stroke:none;fill-rule:nonzero;fill:url(#linear1);" d="M 9.261719 5.792969 L 54.246094 5.792969 C 55.707031 5.792969 56.890625 6.976562 56.890625 8.4375 L 56.890625 53.421875 C 56.890625 54.882812 55.707031 56.066406 54.246094 56.066406 L 9.261719 56.066406 C 7.800781 56.066406 6.613281 54.882812 6.613281 53.421875 L 6.613281 8.4375 C 6.613281 6.976562 7.800781 5.792969 9.261719 5.792969 Z M 9.261719 5.792969 "/>
<path style=" stroke:none;fill-rule:nonzero;fill:rgb(90.196079%,90.196079%,90.196079%);fill-opacity:0.392157;" d="M 9.261719 5.972656 C 7.796875 5.972656 6.613281 7.152344 6.613281 8.617188 L 6.613281 8.949219 C 6.613281 7.484375 7.796875 6.300781 9.261719 6.304688 L 54.246094 6.304688 C 55.710938 6.300781 56.890625 7.484375 56.890625 8.949219 L 56.890625 8.617188 C 56.890625 7.152344 55.710938 5.972656 54.246094 5.972656 Z M 9.261719 5.972656 "/>
<path style=" stroke:none;fill-rule:nonzero;fill:rgb(0%,0%,0%);fill-opacity:0.196078;" d="M 9.261719 56.066406 C 7.796875 56.066406 6.613281 54.886719 6.613281 53.421875 L 6.613281 53.089844 C 6.613281 54.558594 7.796875 55.738281 9.261719 55.738281 L 54.246094 55.738281 C 55.710938 55.738281 56.890625 54.558594 56.890625 53.089844 L 56.890625 53.421875 C 56.890625 54.886719 55.710938 56.066406 54.246094 56.066406 Z M 9.261719 56.066406 "/>
<path style="fill:none;stroke-width:3;stroke-linecap:round;stroke-linejoin:miter;stroke:rgb(12.941177%,12.941177%,12.941177%);stroke-opacity:1;stroke-miterlimit:4;" d="M 74.086675 -168.660675 L 433.927312 -168.660675 C 445.613696 -168.660675 455.081542 -159.192829 455.081542 -147.506445 L 455.081542 212.334192 C 455.081542 224.020576 445.613696 233.488421 433.927312 233.488421 L 74.086675 233.488421 C 62.400291 233.488421 52.901198 224.020576 52.901198 212.334192 L 52.901198 -147.506445 C 52.901198 -159.192829 62.400291 -168.660675 74.086675 -168.660675 Z M 74.086675 -168.660675 " transform="matrix(0.125012,0,0,0.125012,0,26.877566)"/>
<path style=" stroke:none;fill-rule:nonzero;fill:url(#linear2);" d="M 11.90625 9.761719 L 51.597656 9.761719 C 52.328125 9.761719 52.921875 10.355469 52.921875 11.085938 L 52.921875 50.777344 C 52.921875 51.507812 52.328125 52.097656 51.597656 52.097656 L 11.90625 52.097656 C 11.175781 52.097656 10.585938 51.507812 10.585938 50.777344 L 10.585938 11.085938 C 10.585938 10.355469 11.175781 9.761719 11.90625 9.761719 Z M 11.90625 9.761719 "/>
<path style=" stroke:none;fill-rule:nonzero;fill:rgb(100%,100%,100%);fill-opacity:0.392157;" d="M 10.585938 50.777344 L 10.585938 51.4375 C 10.585938 52.171875 11.175781 52.761719 11.90625 52.761719 L 51.597656 52.761719 C 52.332031 52.761719 52.921875 52.171875 52.921875 51.4375 L 52.921875 50.777344 C 52.921875 51.507812 52.332031 52.097656 51.597656 52.097656 L 11.90625 52.097656 C 11.175781 52.097656 10.585938 51.507812 10.585938 50.777344 Z M 10.585938 50.777344 "/>
<path style=" stroke:none;fill-rule:nonzero;fill:rgb(0%,0%,0%);fill-opacity:0.235294;" d="M 10.585938 12.078125 L 10.585938 11.085938 C 10.585938 10.351562 11.175781 9.761719 11.90625 9.761719 L 51.597656 9.761719 C 52.332031 9.761719 52.921875 10.351562 52.921875 11.085938 L 52.921875 12.078125 C 52.921875 11.34375 52.332031 10.753906 51.597656 10.753906 L 11.90625 10.753906 C 11.175781 10.753906 10.585938 11.34375 10.585938 12.078125 Z M 10.585938 12.078125 "/>
<path style="fill:none;stroke-width:3;stroke-linecap:round;stroke-linejoin:miter;stroke:rgb(12.941177%,12.941177%,12.941177%);stroke-opacity:1;stroke-miterlimit:4;" d="M 95.240905 -136.913707 L 412.741835 -136.913707 C 418.585027 -136.913707 423.334574 -132.16416 423.334574 -126.320968 L 423.334574 191.179962 C 423.334574 197.023154 418.585027 201.741453 412.741835 201.741453 L 95.240905 201.741453 C 89.397713 201.741453 84.679414 197.023154 84.679414 191.179962 L 84.679414 -126.320968 C 84.679414 -132.16416 89.397713 -136.913707 95.240905 -136.913707 Z M 95.240905 -136.913707 " transform="matrix(0.125012,0,0,0.125012,0,26.877566)"/>
<path style=" stroke:none;fill-rule:nonzero;fill:url(#linear3);" d="M 24.476562 38.207031 L 27.121094 38.207031 L 29.769531 31.589844 L 32.414062 38.207031 L 35.0625 38.207031 L 29.769531 26.300781 Z M 24.476562 38.207031 "/>
<path style=" stroke:none;fill-rule:nonzero;fill:url(#linear4);" d="M 37.707031 38.207031 L 40.351562 38.207031 L 43 31.589844 L 45.644531 38.207031 L 48.292969 38.207031 L 43 26.300781 Z M 37.707031 38.207031 "/>
<path style=" stroke:none;fill-rule:nonzero;fill:url(#linear5);" d="M 12.570312 22.992188 L 15.214844 22.992188 L 20.507812 34.898438 L 25.800781 22.992188 L 28.445312 22.992188 L 21.832031 38.207031 L 19.183594 38.207031 Z M 12.570312 22.992188 "/>
<path style=" stroke:none;fill-rule:nonzero;fill:url(#linear6);" d="M 28.445312 22.992188 L 21.832031 38.207031 L 24.476562 38.207031 L 29.769531 26.300781 L 35.0625 38.207031 L 37.707031 38.207031 L 43 26.300781 L 48.292969 38.207031 L 50.9375 38.207031 L 44.320312 22.992188 L 41.675781 22.992188 L 36.382812 35.164062 L 31.089844 22.992188 Z M 28.445312 22.992188 "/>
<path style="fill:none;stroke-width:3;stroke-linecap:butt;stroke-linejoin:miter;stroke:rgb(12.941177%,12.941177%,12.941177%);stroke-opacity:1;stroke-miterlimit:4;" d="M 100.552898 -31.080063 L 121.707128 -31.080063 L 164.046834 64.160841 L 206.386541 -31.080063 L 227.540771 -31.080063 L 174.639573 90.627064 L 153.454096 90.627064 Z M 100.552898 -31.080063 " transform="matrix(0.125012,0,0,0.125012,0,26.877566)"/>
<path style=" stroke:none;fill-rule:nonzero;fill:rgb(100%,100%,100%);fill-opacity:0.392157;" d="M 12.570312 23.058594 L 12.785156 23.554688 L 15.214844 23.554688 L 20.507812 35.460938 L 25.800781 23.554688 L 31.089844 23.554688 L 36.382812 35.726562 L 41.675781 23.554688 L 44.320312 23.554688 L 50.722656 38.273438 L 50.9375 38.273438 L 44.320312 23.058594 L 41.675781 23.058594 L 36.382812 35.230469 L 31.089844 23.058594 L 25.800781 23.058594 L 20.507812 34.964844 L 15.214844 23.058594 Z M 12.570312 23.058594 "/>
<path style="fill:none;stroke-width:3;stroke-linecap:butt;stroke-linejoin:miter;stroke:rgb(12.941177%,12.941177%,12.941177%);stroke-opacity:1;stroke-miterlimit:4;" d="M 227.540771 -31.080063 L 174.639573 90.627064 L 195.793803 90.627064 L 238.133509 -4.613841 L 280.473216 90.627064 L 301.627446 90.627064 L 343.967153 -4.613841 L 386.30686 90.627064 L 407.461089 90.627064 L 354.528644 -31.080063 L 333.374414 -31.080063 L 291.034708 66.285639 L 248.695001 -31.080063 Z M 227.540771 -31.080063 " transform="matrix(0.125012,0,0,0.125012,0,26.877566)"/>
<path style="fill:none;stroke-width:3;stroke-linecap:butt;stroke-linejoin:miter;stroke:rgb(12.941177%,12.941177%,12.941177%);stroke-opacity:1;stroke-miterlimit:4;" d="M 195.793803 90.627064 L 216.948032 90.627064 L 238.133509 37.694619 L 259.287739 90.627064 L 280.473216 90.627064 L 238.133509 -4.613841 Z M 195.793803 90.627064 " transform="matrix(0.125012,0,0,0.125012,0,26.877566)"/>
<path style="fill:none;stroke-width:3;stroke-linecap:butt;stroke-linejoin:miter;stroke:rgb(12.941177%,12.941177%,12.941177%);stroke-opacity:1;stroke-miterlimit:4;" d="M 301.627446 90.627064 L 322.781676 90.627064 L 343.967153 37.694619 L 365.121383 90.627064 L 386.30686 90.627064 L 343.967153 -4.613841 Z M 301.627446 90.627064 " transform="matrix(0.125012,0,0,0.125012,0,26.877566)"/>
<path style=" stroke:none;fill-rule:nonzero;fill:rgb(0%,0%,0%);fill-opacity:0.235294;" d="M 12.570312 23.652344 L 19.183594 38.867188 L 27.121094 38.867188 L 29.769531 32.253906 L 32.414062 38.867188 L 40.351562 38.867188 L 43 32.253906 L 45.644531 38.867188 L 50.9375 38.867188 L 50.722656 38.371094 L 45.644531 38.371094 L 43 31.757812 L 40.351562 38.371094 L 32.414062 38.371094 L 29.769531 31.757812 L 27.121094 38.371094 L 19.183594 38.371094 L 12.785156 23.652344 Z M 12.570312 23.652344 "/>
</g>
</svg>
